svg/solid/bxs-buildings.svg

<svg xmlns="http://www.w3.org/2000/svg" width="24" height="24" viewBox="0 0 24 24"><path d="M7 14.001H9V16.000999999999998H7z"/><path d="M19,2h-8C9.896,2,9,2.896,9,4v6H5c-1.103,0-2,0.897-2,2v9c0,0.552,0.447,1,1,1h5h3h1h4h3c0.553,0,1-0.448,1-1V4 C21,2.896,20.104,2,19,2z M5,20v-8h6v8H5z M14,8h-2V6h2V8z M18,16h-2v-2h2V16z M18,12h-2v-2h2V12z M18,8h-2V6h2V8z"/></svg>

<svg xmlns="http://www.w3.org/2000/svg" width="24" height="24"><path d="M7 14.001h2v2H7z"/><path d="M19 2h-8a2 2 0 0 0-2 2v6H5c-1.103 0-2 .897-2 2v9a1 1 0 0 0 1 1h16a1 1 0 0 0 1-1V4a2 2 0 0 0-2-2zM5 20v-8h6v8H5zm9-12h-2V6h2v2zm4 8h-2v-2h2v2zm0-4h-2v-2h2v2zm0-4h-2V6h2v2z"/></svg>
